austria/municipalities/41420.svg

<?xml version="1.0" encoding="UTF-8"?>
<!DOCTYPE svg PUBLIC "-//W3C//DTD SVG 1.1//EN" "http://www.w3.org/Graphics/SVG/1.1/DTD/svg11.dtd">
<svg xmlns="http://www.w3.org/2000/svg" version="1.1" width="166px" height="207px" style="shape-rendering:geometricPrecision; text-rendering:geometricPrecision; image-rendering:optimizeQuality; fill-rule:evenodd; clip-rule:evenodd" xmlns:xlink="http://www.w3.org/1999/xlink">
<g><path style="opacity:1" fill="#000000" d="M -0.5,-0.5 C 54.8333,-0.5 110.167,-0.5 165.5,-0.5C 165.5,44.5 165.5,89.5 165.5,134.5C 161.239,157.511 149.906,176.344 131.5,191C 120.516,198.576 108.516,203.743 95.5,206.5C 86.8333,206.5 78.1667,206.5 69.5,206.5C 30.0336,197.035 6.70027,172.368 -0.5,132.5C -0.5,88.1667 -0.5,43.8333 -0.5,-0.5 Z"/></g>
<g><path style="opacity:1" fill="#fe9900" d="M 3.5,3.5 C 56.1667,3.5 108.833,3.5 161.5,3.5C 161.5,17.8333 161.5,32.1667 161.5,46.5C 108.833,46.5 56.1667,46.5 3.5,46.5C 3.5,32.1667 3.5,17.8333 3.5,3.5 Z"/></g>
<g><path style="opacity:1" fill="#050301" d="M 141.5,11.5 C 142.239,11.369 142.906,11.5357 143.5,12C 141.461,14.3745 139.128,16.3745 136.5,18C 142.767,17.8867 148.267,15.7201 153,11.5C 152.179,15.3659 150.013,18.5325 146.5,21C 142.61,23.7266 138.277,25.3932 133.5,26C 136.79,26.2532 139.79,27.2532 142.5,29C 138.616,30.0972 134.616,30.5972 130.5,30.5C 125.472,30.1647 120.472,29.998 115.5,30C 118.5,31.8333 121.5,33.6667 124.5,35.5C 117.538,36.5088 111.205,34.8421 105.5,30.5C 105.167,30.6667 104.833,30.8333 104.5,31C 106.301,32.3868 106.968,33.8868 106.5,35.5C 103.228,34.0685 100.062,32.4019 97,30.5C 97.0275,32.4174 97.8608,34.084 99.5,35.5C 99.1667,35.8333 98.8333,36.1667 98.5,36.5C 94.6562,34.078 90.9895,31.4113 87.5,28.5C 86.479,29.0016 86.3123,29.6683 87,30.5C 88.6196,32.2415 90.1196,34.0748 91.5,36C 85.3475,34.823 80.1809,31.6564 76,26.5C 77.2957,29.2494 78.7957,32.0828 80.5,35C 80.1501,36.2575 79.4835,36.5908 78.5,36C 75.2896,32.7876 71.7896,29.9543 68,27.5C 68.7777,30.5488 70.2777,33.3821 72.5,36C 69.2607,35.5544 66.2607,34.221 63.5,32C 62,29.1667 59.8333,27 57,25.5C 56.3333,26.1667 56.3333,26.8333 57,27.5C 67.3129,39.6923 65.9796,40.6923 53,30.5C 52.935,33.1977 54.1017,35.3644 56.5,37C 54.4473,37.3247 52.4473,36.9913 50.5,36C 46.9888,33.153 43.4888,30.3196 40,27.5C 33.9599,30.2743 27.7932,32.6077 21.5,34.5C 17.7085,34.7763 15.0419,33.2763 13.5,30C 13.8333,29.1667 14.1667,28.3333 14.5,27.5C 25.3016,21.597 36.6349,17.097 48.5,14C 59.127,12.5216 69.7936,12.1883 80.5,13C 92.1971,14.3422 103.864,15.8422 115.5,17.5C 124.771,17.6282 133.438,15.6282 141.5,11.5 Z"/></g>
<g><path style="opacity:1" fill="#006632" d="M 60.5,13.5 C 78.9103,14.7347 97.2437,16.7347 115.5,19.5C 121.955,18.9817 128.288,18.1484 134.5,17C 126.591,22.3066 118.257,23.8066 109.5,21.5C 116.745,24.9681 124.412,27.1348 132.5,28C 121.727,29.9589 112.227,27.4589 104,20.5C 103.5,21 103,21.5 102.5,22C 106.647,26.8993 111.647,30.566 117.5,33C 118.696,33.6543 118.696,34.1543 117.5,34.5C 109.142,31.2365 101.642,26.5698 95,20.5C 95.8205,24.3659 97.9872,27.5325 101.5,30C 99.4021,29.9678 97.4021,29.3011 95.5,28C 93.153,25.1175 90.4863,22.6175 87.5,20.5C 86.8333,20.6667 86.1667,20.8333 85.5,21C 88.1667,24 90.8333,27 93.5,30C 88.8312,28.0077 84.4979,25.1743 80.5,21.5C 80.4101,24.6989 81.7434,27.5322 84.5,30C 84.1667,30.1667 83.8333,30.3333 83.5,30.5C 79.1667,27.1667 74.8333,23.8333 70.5,20.5C 70.1667,20.8333 69.8333,21.1667 69.5,21.5C 74.5633,30.296 73.23,30.796 65.5,23C 64.1667,22.3333 62.8333,22.3333 61.5,23C 64.8033,25.454 66.6366,28.6207 67,32.5C 63.4438,28.2775 59.2772,24.7775 54.5,22C 53.5165,21.4092 52.8499,21.7425 52.5,23C 53.7015,25.2339 55.0348,27.4006 56.5,29.5C 56.1667,29.8333 55.8333,30.1667 55.5,30.5C 52.2967,28.1623 49.4633,25.4957 47,22.5C 46.5,23 46,23.5 45.5,24C 48.5628,27.3335 50.5628,30.8335 51.5,34.5C 47.4963,31.9895 43.9963,28.9895 41,25.5C 35.172,27.4426 29.5053,29.776 24,32.5C 22.1884,30.6884 20.3551,28.8551 18.5,27C 31.9258,20.3183 45.9258,15.8183 60.5,13.5 Z"/></g>
<g><path style="opacity:1" fill="#006632" d="M 144.5,17.5 C 147.999,17.259 148.332,18.0924 145.5,20C 138.027,24.2355 130.027,25.5688 121.5,24C 127.843,22.7599 134.176,21.4266 140.5,20C 142.066,19.3918 143.4,18.5585 144.5,17.5 Z"/></g>
<g><path style="opacity:1" fill="#003266" d="M 3.5,47.5 C 56.1667,47.5 108.833,47.5 161.5,47.5C 161.667,77.5019 161.5,107.502 161,137.5C 158.469,149.433 153.802,160.433 147,170.5C 145.315,172.017 143.815,173.684 142.5,175.5C 134.539,147.991 127.039,120.325 120,92.5C 119.727,90.6711 118.893,89.1711 117.5,88C 118.701,87.0975 119.535,85.9308 120,84.5C 124.634,86.6447 127.801,85.3114 129.5,80.5C 131.071,81.3094 132.738,81.6427 134.5,81.5C 134.202,78.7354 133.202,76.2354 131.5,74C 133.382,69.5299 132.549,65.6966 129,62.5C 129.244,56.0025 127.244,55.0025 123,59.5C 121.688,56.4191 119.355,54.7524 116,54.5C 113.252,56.731 110.085,57.731 106.5,57.5C 105.334,61.1436 104.001,64.8102 102.5,68.5C 105.078,72.1267 104.745,75.2934 101.5,78C 105.425,81.2979 109.759,83.6312 114.5,85C 115.293,86.0852 115.96,87.2519 116.5,88.5C 105.013,126.115 93.6793,163.782 82.5,201.5C 71.2474,163.659 59.914,125.826 48.5,88C 50.4296,85.3475 53.0963,84.0141 56.5,84C 58.3724,81.631 60.3724,79.4644 62.5,77.5C 62.4712,75.9707 61.8045,74.804 60.5,74C 63.4572,69.7011 62.9572,65.8678 59,62.5C 58.6667,60.5 58.3333,58.5 58,56.5C 57.2753,57.0585 56.4419,57.3918 55.5,57.5C 51.9798,54.9141 48.3131,54.4141 44.5,56C 43.2986,56.9025 42.4652,58.0692 42,59.5C 40.7581,58.1279 39.2581,57.1279 37.5,56.5C 37.1134,60.1636 35.6134,63.1636 33,65.5C 32.2585,68.562 32.4252,71.562 33.5,74.5C 31.9802,76.6621 30.9802,78.9954 30.5,81.5C 32.2624,81.6427 33.9291,81.3094 35.5,80.5C 37.1993,85.3114 40.3659,86.6447 45,84.5C 45.956,85.5786 46.7894,86.7453 47.5,88C 38.9676,116.588 31.1343,145.422 24,174.5C 23.6667,174.833 23.3333,175.167 23,175.5C 12.6778,164.521 6.34442,151.521 4,136.5C 3.50002,106.835 3.33335,77.1685 3.5,47.5 Z"/></g>
<g><path style="opacity:1" fill="#fefffe" d="M 46.5,56.5 C 53.1652,56.834 54.8319,59.834 51.5,65.5C 49.2079,64.6906 47.0412,64.3573 45,64.5C 42.7886,61.2756 43.2886,58.6089 46.5,56.5 Z"/></g>
<g><path style="opacity:1" fill="#fefffe" d="M 120.5,65.5 C 118.156,64.3284 115.823,64.3284 113.5,65.5C 109.766,58.5661 111.766,55.8994 119.5,57.5C 121.722,59.8838 122.056,62.5505 120.5,65.5 Z"/></g>
<g><path style="opacity:1" fill="#fe9900" d="M 38.5,58.5 C 40.4459,59.2544 41.2793,60.5878 41,62.5C 39.2942,61.6921 38.4609,60.3588 38.5,58.5 Z"/></g>
<g><path style="opacity:1" fill="#fe9900" d="M 55.5,59.5 C 57.337,59.6395 57.6704,60.3061 56.5,61.5C 55.7025,61.0431 55.3691,60.3764 55.5,59.5 Z"/></g>
<g><path style="opacity:1" fill="#fe9900" d="M 124.5,59.5 C 126.337,59.6395 126.67,60.3061 125.5,61.5C 124.702,61.0431 124.369,60.3764 124.5,59.5 Z"/></g>
<g><path style="opacity:1" fill="#fefffe" d="M 37.5,63.5 C 40.0163,63.7553 42.3496,64.5886 44.5,66C 42.5586,67.8159 41.8919,69.8159 42.5,72C 37.7586,75.9891 34.7586,74.9891 33.5,69C 34.4118,66.7951 35.7451,64.9618 37.5,63.5 Z"/></g>
<g><path style="opacity:1" fill="#fefffe" d="M 55.5,63.5 C 59.0624,63.5638 60.7291,65.3972 60.5,69C 59.9538,73.1781 57.7871,74.3448 54,72.5C 53.068,69.1769 53.568,66.1769 55.5,63.5 Z"/></g>
<g><path style="opacity:1" fill="#fefffe" d="M 106.5,63.5 C 109.084,63.5688 111.084,64.7355 112.5,67C 111.332,69.1634 110.665,71.1634 110.5,73C 103.087,72.6132 101.754,69.4466 106.5,63.5 Z"/></g>
<g><path style="opacity:1" fill="#fefffe" d="M 120.5,65.5 C 125.612,62.1485 129.279,63.3152 131.5,69C 131.355,73.8185 129.021,75.4852 124.5,74C 123.106,71.1831 121.773,68.3497 120.5,65.5 Z"/></g>
<g><path style="opacity:1" fill="#fe9900" d="M 46.5,66.5 C 49.7787,66.3051 51.7787,67.8051 52.5,71C 49.2442,77.0896 46.2442,76.9229 43.5,70.5C 44.1716,68.8405 45.1716,67.5072 46.5,66.5 Z"/></g>
<g><path style="opacity:1" fill="#fe9900" d="M 115.5,66.5 C 120.365,66.6845 122.032,69.0178 120.5,73.5C 116.547,76.5131 113.88,75.5131 112.5,70.5C 113.524,69.1482 114.524,67.8149 115.5,66.5 Z"/></g>
<g><path style="opacity:1" fill="#fefffe" d="M 42.5,74.5 C 47.9391,78.3225 47.6058,81.6559 41.5,84.5C 39.2388,83.6517 38.2388,81.985 38.5,79.5C 38.8333,78.5 39.1667,77.5 39.5,76.5C 40.7387,76.0576 41.7387,75.3909 42.5,74.5 Z"/></g>
<g><path style="opacity:1" fill="#fefffe" d="M 52.5,74.5 C 54.0174,74.5106 55.1841,75.1772 56,76.5C 56.4955,78.4727 56.6621,80.4727 56.5,82.5C 52.2728,83.2131 49.6062,81.5464 48.5,77.5C 50.1836,76.8503 51.5169,75.8503 52.5,74.5 Z"/></g>
<g><path style="opacity:1" fill="#fefffe" d="M 111.5,74.5 C 112.82,75.9418 114.486,76.6085 116.5,76.5C 116.294,81.0989 113.961,82.9322 109.5,82C 107.84,78.7773 108.506,76.2773 111.5,74.5 Z"/></g>
<g><path style="opacity:1" fill="#fefffe" d="M 121.5,74.5 C 126.018,75.9324 127.351,78.9324 125.5,83.5C 121.378,84.7461 119.044,83.0795 118.5,78.5C 119.286,76.9589 120.286,75.6256 121.5,74.5 Z"/></g>
<g><path style="opacity:1" fill="#fe9900" d="M 34.5,75.5 C 37.1402,76.7936 37.1402,78.127 34.5,79.5C 33.7084,78.3002 33.7084,76.9669 34.5,75.5 Z"/></g>
<g><path style="opacity:1" fill="#fe9900" d="M 57.5,76.5 C 58.209,75.596 59.209,75.2627 60.5,75.5C 60.3059,79.0048 59.3059,79.3382 57.5,76.5 Z"/></g>
<g><path style="opacity:1" fill="#fe9900" d="M 105.5,75.5 C 107.648,75.3894 107.981,76.056 106.5,77.5C 105.635,78.5827 104.635,78.7494 103.5,78C 104.381,77.2917 105.047,76.4584 105.5,75.5 Z"/></g>
<g><path style="opacity:1" fill="#fe9900" d="M 129.5,75.5 C 130.837,76.3149 131.837,77.4815 132.5,79C 129.372,79.3837 128.372,78.217 129.5,75.5 Z"/></g>
<g><path style="opacity:1" fill="#fe9900" d="M 116.5,80.5 C 118.3,81.8948 118.634,83.5615 117.5,85.5C 115.374,84.0908 115.04,82.4241 116.5,80.5 Z"/></g>
<g><path style="opacity:1" fill="#fe9900" d="M 47.5,81.5 C 49.4411,82.6378 49.6078,84.3045 48,86.5C 46.4807,84.8608 46.314,83.1942 47.5,81.5 Z"/></g>
<g><path style="opacity:1" fill="#fefffe" d="M 47.5,90.5 C 58.6742,127.364 69.6742,164.364 80.5,201.5C 63.3211,202.538 47.9878,197.705 34.5,187C 30.4876,184.321 27.1542,180.988 24.5,177C 32.6141,148.253 40.2807,119.42 47.5,90.5 Z"/></g>
<g><path style="opacity:1" fill="#fefffe" d="M 116.5,91.5 C 118.218,93.3637 119.385,95.6971 120,98.5C 127.187,125.123 133.854,151.79 140,178.5C 125.354,194.332 107.188,202.332 85.5,202.5C 95.6286,165.447 105.962,128.447 116.5,91.5 Z"/></g>
<g><path style="opacity:1" fill="#fefffe" d="M -0.5,132.5 C 6.70027,172.368 30.0336,197.035 69.5,206.5C 46.1667,206.5 22.8333,206.5 -0.5,206.5C -0.5,181.833 -0.5,157.167 -0.5,132.5 Z"/></g>
<g><path style="opacity:1" fill="#fefffe" d="M 165.5,134.5 C 165.5,158.5 165.5,182.5 165.5,206.5C 142.167,206.5 118.833,206.5 95.5,206.5C 108.516,203.743 120.516,198.576 131.5,191C 149.906,176.344 161.239,157.511 165.5,134.5 Z"/></g>
</svg>

<svg xmlns="http://www.w3.org/2000/svg" width="166" height="207" style="shape-rendering:geometricPrecision;text-rendering:geometricPrecision;image-rendering:optimizeQuality;fill-rule:evenodd;clip-rule:evenodd"><path style="opacity:1" d="M-.5-.5h166v135c-4.261 23.011-15.594 41.844-34 56.5-10.984 7.576-22.984 12.743-36 15.5h-26c-39.466-9.465-62.8-34.132-70-74V-.5z"/><path style="opacity:1" fill="#fe9900" d="M3.5 3.5h158v43H3.5v-43z"/><path style="opacity:1" fill="#050301" d="M141.5 11.5a2.427 2.427 0 0 1 2 .5 29.94 29.94 0 0 1-7 6c6.267-.113 11.767-2.28 16.5-6.5-.821 3.866-2.987 7.032-6.5 9.5-3.89 2.727-8.223 4.393-13 5 3.29.253 6.29 1.253 9 3a40.385 40.385 0 0 1-12 1.5 224.024 224.024 0 0 0-15-.5l9 5.5c-6.962 1.009-13.295-.658-19-5l-1 .5c1.801 1.387 2.468 2.887 2 4.5a74.826 74.826 0 0 1-9.5-5c.028 1.917.86 3.584 2.5 5l-1 1a102.193 102.193 0 0 1-11-8c-1.021.502-1.188 1.168-.5 2a55.897 55.897 0 0 1 4.5 5.5c-6.153-1.177-11.32-4.344-15.5-9.5a109.08 109.08 0 0 0 4.5 8.5c-.35 1.258-1.016 1.59-2 1A63.968 63.968 0 0 0 68 27.5c.778 3.049 2.278 5.882 4.5 8.5-3.24-.446-6.24-1.779-9-4-1.5-2.833-3.667-5-6.5-6.5-.667.667-.667 1.333 0 2 10.313 12.192 8.98 13.192-4 3-.065 2.698 1.102 4.864 3.5 6.5-2.053.325-4.053-.009-6-1-3.511-2.847-7.011-5.68-10.5-8.5a142.781 142.781 0 0 1-18.5 7c-3.791.276-6.458-1.224-8-4.5l1-2.5a149.237 149.237 0 0 1 34-13.5 149.534 149.534 0 0 1 32-1 1293.9 1293.9 0 0 1 35 4.5c9.271.128 17.938-1.872 26-6z"/><path style="opacity:1" fill="#006632" d="M60.5 13.5a663.586 663.586 0 0 1 55 6 186.608 186.608 0 0 0 19-2.5c-7.909 5.307-16.243 6.807-25 4.5 7.245 3.468 14.912 5.635 23 6.5-10.773 1.959-20.273-.541-28.5-7.5l-1.5 1.5c4.147 4.9 9.147 8.566 15 11 1.196.654 1.196 1.154 0 1.5-8.358-3.264-15.858-7.93-22.5-14 .82 3.866 2.987 7.032 6.5 9.5-2.098-.032-4.098-.699-6-2a40.457 40.457 0 0 0-8-7.5l-2 .5 8 9c-4.669-1.992-9.002-4.826-13-8.5-.09 3.199 1.243 6.032 4 8.5l-1 .5-13-10-1 1c5.063 8.796 3.73 9.296-4 1.5-1.333-.667-2.667-.667-4 0 3.303 2.454 5.137 5.62 5.5 9.5A47.312 47.312 0 0 0 54.5 22c-.983-.59-1.65-.258-2 1a65.858 65.858 0 0 0 4 6.5l-1 1a46.23 46.23 0 0 1-8.5-8L45.5 24c3.063 3.334 5.063 6.834 6 10.5-4.004-2.51-7.504-5.51-10.5-9a133.427 133.427 0 0 0-17 7L18.5 27c13.426-6.682 27.426-11.182 42-13.5z"/><path style="opacity:1" fill="#006632" d="M144.5 17.5c3.499-.241 3.832.592 1 2.5-7.473 4.235-15.473 5.569-24 4a674.162 674.162 0 0 0 19-4c1.566-.608 2.9-1.442 4-2.5z"/><path style="opacity:1" fill="#003266" d="M3.5 47.5h158c.167 30.002 0 60.002-.5 90-2.531 11.933-7.198 22.933-14 33a31.84 31.84 0 0 0-4.5 5 2534.813 2534.813 0 0 1-22.5-83c-.273-1.829-1.107-3.329-2.5-4.5a6.977 6.977 0 0 0 2.5-3.5c4.634 2.145 7.801.811 9.5-4a9.107 9.107 0 0 0 5 1c-.298-2.765-1.298-5.265-3-7.5 1.882-4.47 1.049-8.303-2.5-11.5.244-6.498-1.756-7.498-6-3-1.312-3.08-3.645-4.748-7-5-2.748 2.231-5.915 3.231-9.5 3a152.75 152.75 0 0 1-4 11c2.578 3.627 2.245 6.793-1 9.5 3.925 3.298 8.259 5.631 13 7a18.083 18.083 0 0 1 2 3.5 14311.696 14311.696 0 0 0-34 113A29445.822 29445.822 0 0 0 48.5 88c1.93-2.653 4.596-3.986 8-4a56.543 56.543 0 0 1 6-6.5c-.029-1.53-.696-2.696-2-3.5 2.957-4.299 2.457-8.132-1.5-11.5l-1-6a4.938 4.938 0 0 1-2.5 1c-3.52-2.586-7.187-3.086-11-1.5a6.975 6.975 0 0 0-2.5 3.5 10.937 10.937 0 0 0-4.5-3c-.387 3.664-1.887 6.664-4.5 9-.742 3.062-.575 6.062.5 9-1.52 2.162-2.52 4.495-3 7a9.106 9.106 0 0 0 5-1c1.7 4.811 4.866 6.145 9.5 4a20.473 20.473 0 0 1 2.5 3.5A1812.713 1812.713 0 0 0 24 174.5l-1 1c-10.322-10.979-16.656-23.979-19-39-.5-29.665-.667-59.332-.5-89z"/><path style="opacity:1" fill="#fefffe" d="M46.5 56.5c6.665.334 8.332 3.334 5 9-2.292-.81-4.459-1.143-6.5-1-2.211-3.224-1.711-5.891 1.5-8zM120.5 65.5c-2.344-1.172-4.677-1.172-7 0-3.734-6.934-1.734-9.6 6-8 2.222 2.384 2.556 5.05 1 8z"/><path style="opacity:1" fill="#fe9900" d="M38.5 58.5c1.946.754 2.78 2.088 2.5 4-1.706-.808-2.54-2.141-2.5-4zM55.5 59.5c1.837.14 2.17.806 1 2-.797-.457-1.13-1.124-1-2zM124.5 59.5c1.837.14 2.17.806 1 2-.798-.457-1.131-1.124-1-2z"/><path style="opacity:1" fill="#fefffe" d="M37.5 63.5c2.516.255 4.85 1.089 7 2.5-1.941 1.816-2.608 3.816-2 6-4.741 3.99-7.741 2.99-9-3 .912-2.205 2.245-4.038 4-5.5zM55.5 63.5c3.562.064 5.23 1.897 5 5.5-.546 4.178-2.713 5.345-6.5 3.5-.932-3.323-.432-6.323 1.5-9zM106.5 63.5c2.584.069 4.584 1.236 6 3.5-1.168 2.163-1.835 4.163-2 6-7.413-.387-8.746-3.553-4-9.5zM120.5 65.5c5.112-3.352 8.779-2.185 11 3.5-.145 4.819-2.479 6.485-7 5a238.312 238.312 0 0 1-4-8.5z"/><path style="opacity:1" fill="#fe9900" d="M46.5 66.5c3.279-.195 5.279 1.305 6 4.5-3.256 6.09-6.256 5.923-9-.5.672-1.66 1.672-2.993 3-4zM115.5 66.5c4.865.184 6.532 2.518 5 7-3.953 3.013-6.62 2.013-8-3a512.469 512.469 0 0 0 3-4z"/><path style="opacity:1" fill="#fefffe" d="M42.5 74.5c5.44 3.823 5.106 7.156-1 10-2.261-.848-3.261-2.515-3-5l1-3c1.239-.442 2.239-1.11 3-2zM52.5 74.5c1.517.01 2.684.677 3.5 2 .495 1.973.662 3.973.5 6-4.227.713-6.894-.954-8-5 1.684-.65 3.017-1.65 4-3zM111.5 74.5c1.32 1.442 2.986 2.109 5 2-.206 4.599-2.539 6.432-7 5.5-1.66-3.223-.994-5.723 2-7.5zM121.5 74.5c4.518 1.432 5.851 4.432 4 9-4.122 1.246-6.456-.42-7-5a14.193 14.193 0 0 1 3-4z"/><path style="opacity:1" fill="#fe9900" d="M34.5 75.5c2.64 1.294 2.64 2.627 0 4-.792-1.2-.792-2.533 0-4zM57.5 76.5c.709-.904 1.709-1.237 3-1-.194 3.505-1.194 3.838-3 1zM105.5 75.5c2.148-.11 2.481.556 1 2-.865 1.083-1.865 1.25-3 .5.881-.708 1.547-1.542 2-2.5zM129.5 75.5c1.337.815 2.337 1.981 3 3.5-3.128.384-4.128-.783-3-3.5zM116.5 80.5c1.8 1.395 2.134 3.061 1 5-2.126-1.41-2.46-3.076-1-5zM47.5 81.5c1.941 1.138 2.108 2.805.5 5-1.52-1.64-1.686-3.306-.5-5z"/><path style="opacity:1" fill="#fefffe" d="M47.5 90.5a10863.66 10863.66 0 0 1 33 111c-17.179 1.038-32.512-3.795-46-14.5a35.702 35.702 0 0 1-10-10 2937.25 2937.25 0 0 0 23-86.5zM116.5 91.5c1.718 1.864 2.885 4.197 3.5 7a2198.66 2198.66 0 0 1 20 80c-14.646 15.832-32.812 23.832-54.5 24a10470.952 10470.952 0 0 1 31-111z"/><path style="opacity:1" fill="#fefffe" d="M-.5 132.5c7.2 39.868 30.534 64.535 70 74h-70v-74zM165.5 134.5v72h-70c13.016-2.757 25.016-7.924 36-15.5 18.406-14.656 29.739-33.489 34-56.5z"/></svg>
